X:1
T:Title
%%score { ( 1 3 ) | ( 2 4 ) }
L:1/8
M:3/4
K:F
V:1 treble nm="Grand Piano"
V:3 treble 
V:2 bass 
V:4 bass 
V:1
 z2 z2[Q:1/4=100] F2 | A3 F BA | d2 c2 A2 | [Ec]3 [EG] [FA][GB] | A4 F2 | A3 F BA | d2 c2 A2 | %7
 Gc [Ec]2 [Fd]2 | [Ec]4 [GB]2 | [GB]3 [^FA] [GB][FA] | [GB]2 [EG]2 [E_A]2 | [FA]3 [FA] [^CA]>[CG] | %12
 [DF]4 [DF]2 | [Fd]3 [Fd] [Fd][Fd] | [Fc]2 [DF]2 [DB]2 | [FA]>[FA] [EA]3 [CG] |[M:2/4] [A,CF]4 | %17
[M:1/4] A2 |[M:3/4] [Ec]3 [EG] [Ec][EG] | A2 c2 c2 | =B3 c de | c4 z2 | f3 c BA | A2 z2 z2 | %24
 [Fc] [F,F]2 [CEA]2 [B,CG] |[M:2/4] [F,A,CF]4 |] %26
V:2
 z2 z2 [F,A,]2 | [F,CF]3 [F,A,] [F,DF][F,CF] | [F,B,F]2 [F,A,F]2 [F,F]2 | %3
 [C,G,]3 [C,C] [C,C][C,C] | [F,CF]4 [F,A,]2 | [F,CF]3 [F,A,] [F,DF][F,CF] | %6
 [F,B,F]2 [F,A,F]2 [F,CF]2 | [G,CE][G,CE] [G,,G,]2 [G,,G,]2 | [E,G,]4 [C,C]2 | %9
 [C,C]3 [C,C] [C,C][C,C] | [C,C]2 [C,C]2 [C,C]2 | [F,C]3 [F,C] [A,,A,]>[A,,A,] | [D,A,]4 [D,A,]2 | %13
 [B,,B,]3 [B,,B,] [B,,B,][B,,F,] | [A,,F,]2 [D,A,]2 [G,,G,]2 | [C,F,]>[C,C] [C,C]3 [C,B,] | %16
[M:2/4] [F,,F,]4 |[M:1/4] [F,F]2 |[M:3/4] [C,G,]3 [C,C] [C,G,][C,C] | [F,CF]2 [F,A,F]2 [F,A,F]2 | %20
 [G,F]3 [G,E] [G,F][G,G] | G,2 A,B,[K:treble] [A,CF]2 | [A,CF]3 [F,A,F] [F,DF][F,CF] | %23
 [C,C]2 [D,A,D]2 [B,,B,]2 | [A,,F,] D,2 C,2 C, |[M:2/4] F,,4 |] %26
V:3
 x6 | x6 | x6 | x6 | x6 | x6 | x6 | x6 | x6 | x6 | x6 | x6 | x6 | x6 | x6 | x6 |[M:2/4] x4 | %17
[M:1/4] x2 |[M:3/4] x6 | x6 | x6 | E2 FG c2 | x6 | E->[EG] F2 [Fd]2 | x6 |[M:2/4] x4 |] %26
V:4
 x6 | x6 | x6 | x6 | x6 | x6 | x6 | x6 | x6 | x6 | x6 | x6 | x6 | x6 | x6 | x6 |[M:2/4] x4 | %17
[M:1/4] x2 |[M:3/4] x6 | x6 | x6 | C,4[K:treble] z2 | x6 | x6 | x6 |[M:2/4] x4 |] %26

